static/img/kroki/8d33f6366bb55be79c3118803ef74108.svg

<?xml version="1.0" encoding="us-ascii" standalone="no"?><svg xmlns="http://www.w3.org/2000/svg" xmlns:xlink="http://www.w3.org/1999/xlink" contentStyleType="text/css" height="374px" preserveAspectRatio="none" style="width:369px;height:374px;" version="1.1" viewBox="0 0 369 374" width="369px" zoomAndPan="magnify"><defs/><g><!--class kubernetes_persistent_volume--><g id="elem_kubernetes_persistent_volume"><rect codeLine="23" fill="#3D176E" height="39.7891" id="kubernetes_persistent_volume" rx="2.5" ry="2.5" style="stroke:#000D19;stroke-width:0.5;" width="300" x="62" y="328.58"/><ellipse cx="77" cy="348.4745" fill="#ADD1B2" rx="11" ry="11" style="stroke:#181818;stroke-width:1.0;"/><path d="M79.9688,354.1152 Q79.3906,354.412 78.75,354.5527 Q78.1094,354.7089 77.4063,354.7089 Q74.9063,354.7089 73.5781,353.0683 Q72.2656,351.412 72.2656,348.287 Q72.2656,345.162 73.5781,343.5058 Q74.9063,341.8495 77.4063,341.8495 Q78.1094,341.8495 78.75,342.0058 Q79.4063,342.162 79.9688,342.4589 L79.9688,345.1777 Q79.3438,344.5995 78.75,344.3339 Q78.1563,344.0527 77.5313,344.0527 Q76.1875,344.0527 75.5,345.1308 Q74.8125,346.1933 74.8125,348.287 Q74.8125,350.3808 75.5,351.4589 Q76.1875,352.5214 77.5313,352.5214 Q78.1563,352.5214 78.75,352.2558 Q79.3438,351.9745 79.9688,351.3964 L79.9688,354.1152 Z " fill="#000000"/><text fill="#D9B8FF" font-family="Helvetica" font-size="17" lengthAdjust="spacing" textLength="258" x="96" y="354.3598">kubernetes_persistent_volume</text></g><!--class kubernetes_resource--><g id="elem_kubernetes_resource"><rect codeLine="26" fill="#3D176E" height="39.7891" id="kubernetes_resource" rx="2.5" ry="2.5" style="stroke:#000D19;stroke-width:0.5;" width="216" x="7" y="167.79"/><ellipse cx="22" cy="187.6845" fill="#ADD1B2" rx="11" ry="11" style="stroke:#181818;stroke-width:1.0;"/><path d="M24.9688,193.3252 Q24.3906,193.622 23.75,193.7627 Q23.1094,193.9189 22.4063,193.9189 Q19.9063,193.9189 18.5781,192.2783 Q17.2656,190.622 17.2656,187.497 Q17.2656,184.372 18.5781,182.7158 Q19.9063,181.0595 22.4063,181.0595 Q23.1094,181.0595 23.75,181.2158 Q24.4063,181.372 24.9688,181.6689 L24.9688,184.3877 Q24.3438,183.8095 23.75,183.5439 Q23.1563,183.2627 22.5313,183.2627 Q21.1875,183.2627 20.5,184.3408 Q19.8125,185.4033 19.8125,187.497 Q19.8125,189.5908 20.5,190.6689 Q21.1875,191.7314 22.5313,191.7314 Q23.1563,191.7314 23.75,191.4658 Q24.3438,191.1845 24.9688,190.6064 L24.9688,193.3252 Z " fill="#000000"/><text fill="#D9B8FF" font-family="Helvetica" font-size="17" lengthAdjust="spacing" textLength="174" x="41" y="193.5698">kubernetes_resource</text></g><!--class resource--><g id="elem_resource"><rect codeLine="29" fill="#3D176E" height="39.7891" id="resource" rx="2.5" ry="2.5" style="stroke:#000D19;stroke-width:0.5;" width="113" x="155.5" y="7"/><ellipse cx="170.5" cy="26.8945" fill="#ADD1B2" rx="11" ry="11" style="stroke:#181818;stroke-width:1.0;"/><path d="M173.4688,32.5352 Q172.8906,32.832 172.25,32.9727 Q171.6094,33.1289 170.9063,33.1289 Q168.4063,33.1289 167.0781,31.4883 Q165.7656,29.832 165.7656,26.707 Q165.7656,23.582 167.0781,21.9258 Q168.4063,20.2695 170.9063,20.2695 Q171.6094,20.2695 172.25,20.4258 Q172.9063,20.582 173.4688,20.8789 L173.4688,23.5977 Q172.8438,23.0195 172.25,22.7539 Q171.6563,22.4727 171.0313,22.4727 Q169.6875,22.4727 169,23.5508 Q168.3125,24.6133 168.3125,26.707 Q168.3125,28.8008 169,29.8789 Q169.6875,30.9414 171.0313,30.9414 Q171.6563,30.9414 172.25,30.6758 Q172.8438,30.3945 173.4688,29.8164 L173.4688,32.5352 Z " fill="#000000"/><text fill="#D9B8FF" font-family="Helvetica" font-size="17" lengthAdjust="spacing" textLength="71" x="189.5" y="32.7798">resource</text></g><!--class volume--><g id="elem_volume"><rect codeLine="32" fill="#3D176E" height="39.7891" id="volume" rx="2.5" ry="2.5" style="stroke:#000D19;stroke-width:0.5;" width="105" x="257.5" y="167.79"/><ellipse cx="272.5" cy="187.6845" fill="#ADD1B2" rx="11" ry="11" style="stroke:#181818;stroke-width:1.0;"/><path d="M275.4688,193.3252 Q274.8906,193.622 274.25,193.7627 Q273.6094,193.9189 272.9063,193.9189 Q270.4063,193.9189 269.0781,192.2783 Q267.7656,190.622 267.7656,187.497 Q267.7656,184.372 269.0781,182.7158 Q270.4063,181.0595 272.9063,181.0595 Q273.6094,181.0595 274.25,181.2158 Q274.9063,181.372 275.4688,181.6689 L275.4688,184.3877 Q274.8438,183.8095 274.25,183.5439 Q273.6563,183.2627 273.0313,183.2627 Q271.6875,183.2627 271,184.3408 Q270.3125,185.4033 270.3125,187.497 Q270.3125,189.5908 271,190.6689 Q271.6875,191.7314 273.0313,191.7314 Q273.6563,191.7314 274.25,191.4658 Q274.8438,191.1845 275.4688,190.6064 L275.4688,193.3252 Z " fill="#000000"/><text fill="#D9B8FF" font-family="Helvetica" font-size="17" lengthAdjust="spacing" textLength="63" x="291.5" y="193.5698">volume</text></g><!--reverse link kubernetes_resource to kubernetes_persistent_volume--><g id="link_kubernetes_resource_kubernetes_persistent_volume"><path codeLine="35" d="M136.082,223.2016 C154.722,253.7216 181.59,297.69 200.26,328.25 " fill="none" id="kubernetes_resource-backto-kubernetes_persistent_volume" style="stroke:#FFAF37;stroke-width:2.0;"/><polygon fill="none" points="126.7,207.84,130.9615,226.3289,141.2025,220.0742,126.7,207.84" style="stroke:#FFAF37;stroke-width:2.0;"/></g><!--reverse link volume to kubernetes_persistent_volume--><g id="link_volume_kubernetes_persistent_volume"><path codeLine="36" d="M288.725,223.1567 C269.885,253.6767 242.73,297.69 223.86,328.25 " fill="none" id="volume-backto-kubernetes_persistent_volume" style="stroke:#FFAF37;stroke-width:2.0;"/><polygon fill="none" points="298.18,207.84,283.6194,220.0051,293.8306,226.3084,298.18,207.84" style="stroke:#FFAF37;stroke-width:2.0;"/></g><!--reverse link resource to kubernetes_resource--><g id="link_resource_kubernetes_resource"><path codeLine="37" d="M190.918,62.4116 C172.278,92.9316 145.41,136.9 126.74,167.46 " fill="none" id="resource-backto-kubernetes_resource" style="stroke:#FFAF37;stroke-width:2.0;"/><polygon fill="none" points="200.3,47.05,185.7975,59.2842,196.0385,65.5389,200.3,47.05" style="stroke:#FFAF37;stroke-width:2.0;"/></g><!--reverse link resource to volume--><g id="link_resource_volume"><path codeLine="38" d="M233.275,62.3667 C252.115,92.8867 279.27,136.9 298.14,167.46 " fill="none" id="resource-backto-volume" style="stroke:#FFAF37;stroke-width:2.0;"/><polygon fill="none" points="223.82,47.05,228.1694,65.5184,238.3806,59.2151,223.82,47.05" style="stroke:#FFAF37;stroke-width:2.0;"/></g><!--SRC=[ZP9FRu904CNlV8fDF9j0JOialIX9qrvCKtit2pkh6s2Np0uQ- -Ux5oesAmZsEkytRzvCPgS4C2XAEh82YWJGUZPJkkJ82xP0D8VOv0RPH4ekPs5NV3AQRW8hNW1xXdmFf5BU9TvtAiqqMClk76d9qsoBfjBYP4_8jQqbqEHGSSwjNH2XIYe29uo8ahcKNR9hEfc987o07cPG0BQ8x_iYYBh8pL6ZU_yHQ_K1B72FjZ84lPYz4R_KQCg6S4Bs5ZthWnbVkH1ARzczKtixPK8DU55VxxWmXuQMFBVk64k0OEXOGjpR2gAvaE5L-6K8zjBcT2ohwa_LG60tPVsogkxKjDcRlAgt-VIyxpw7O4s5wOLyhUQQN6j__9fEfwC1lDRY7-Imwrdf8ctZ3m00]--></g></svg>

<svg xmlns="http://www.w3.org/2000/svg" width="369" height="374" viewBox="0 0 369 374"><rect width="300" height="39.789" x="62" y="328.58" fill="#3D176E" rx="2.5" ry="2.5" style="stroke:#000d19;stroke-width:.5"/><circle cx="77" cy="348.474" r="11" fill="#ADD1B2" style="stroke:#181818;stroke-width:1"/><path d="M79.969 354.115q-.578.297-1.219.438-.64.156-1.344.156-2.5 0-3.828-1.64-1.312-1.657-1.312-4.782t1.312-4.781q1.328-1.656 3.828-1.656.703 0 1.344.156.656.156 1.219.453v2.719q-.625-.579-1.219-.844-.594-.281-1.219-.281-1.344 0-2.031 1.078-.687 1.062-.687 3.156t.687 3.172q.688 1.062 2.031 1.062.625 0 1.219-.265.594-.281 1.219-.86z"/><text x="96" y="354.36" fill="#D9B8FF" font-family="Helvetica" font-size="17" textLength="258">kubernetes_persistent_volume</text><rect width="216" height="39.789" x="7" y="167.79" fill="#3D176E" rx="2.5" ry="2.5" style="stroke:#000d19;stroke-width:.5"/><circle cx="22" cy="187.685" r="11" fill="#ADD1B2" style="stroke:#181818;stroke-width:1"/><path d="M24.969 193.325q-.578.297-1.219.438-.64.156-1.344.156-2.5 0-3.828-1.64-1.312-1.657-1.312-4.782t1.312-4.781q1.328-1.656 3.828-1.656.703 0 1.344.156.656.156 1.219.453v2.719q-.625-.578-1.219-.844-.594-.281-1.219-.281-1.343 0-2.031 1.078-.687 1.062-.687 3.156t.687 3.172q.688 1.062 2.031 1.062.625 0 1.219-.265.594-.281 1.219-.86z"/><text x="41" y="193.57" fill="#D9B8FF" font-family="Helvetica" font-size="17" textLength="174">kubernetes_resource</text><rect width="113" height="39.789" x="155.5" y="7" fill="#3D176E" rx="2.5" ry="2.5" style="stroke:#000d19;stroke-width:.5"/><circle cx="170.5" cy="26.895" r="11" fill="#ADD1B2" style="stroke:#181818;stroke-width:1"/><path d="M173.469 32.535q-.578.297-1.219.438-.64.156-1.344.156-2.5 0-3.828-1.64-1.312-1.657-1.312-4.782t1.312-4.781q1.328-1.656 3.828-1.656.703 0 1.344.156.656.156 1.219.453v2.719q-.625-.578-1.219-.844-.594-.281-1.219-.281-1.344 0-2.031 1.078-.687 1.062-.687 3.156t.687 3.172q.688 1.062 2.031 1.062.625 0 1.219-.265.594-.281 1.219-.86z"/><text x="189.5" y="32.78" fill="#D9B8FF" font-family="Helvetica" font-size="17" textLength="71">resource</text><rect width="105" height="39.789" x="257.5" y="167.79" fill="#3D176E" rx="2.5" ry="2.5" style="stroke:#000d19;stroke-width:.5"/><circle cx="272.5" cy="187.685" r="11" fill="#ADD1B2" style="stroke:#181818;stroke-width:1"/><path d="M275.469 193.325q-.578.297-1.219.438-.64.156-1.344.156-2.5 0-3.828-1.64-1.312-1.657-1.312-4.782t1.312-4.781q1.328-1.656 3.828-1.656.703 0 1.344.156.656.156 1.219.453v2.719q-.625-.578-1.219-.844-.594-.281-1.219-.281-1.344 0-2.031 1.078-.687 1.062-.687 3.156t.687 3.172q.688 1.062 2.031 1.062.625 0 1.219-.265.594-.281 1.219-.86z"/><text x="291.5" y="193.57" fill="#D9B8FF" font-family="Helvetica" font-size="17" textLength="63">volume</text><path fill="none" d="M136.082 223.202c18.64 30.52 45.508 74.488 64.178 105.048M126.7 207.84l4.261 18.489 10.241-6.255zm162.025 15.317c-18.84 30.52-45.995 74.533-64.865 105.093m74.32-120.41-14.56 12.165 10.21 6.303zM190.918 62.412c-18.64 30.52-45.508 74.488-64.178 105.048M200.3 47.05l-14.502 12.234 10.24 6.255zm32.975 15.317c18.84 30.52 45.995 74.533 64.865 105.093M223.82 47.05l4.35 18.468 10.21-6.303z" style="stroke:#ffaf37;stroke-width:2"/></svg>
